X: 19941
T: Jig's Up, The
R: jig
M: 6/8
K: Bminor
|:B2d cBB|B2d fef|B2d cBB|cAA fec:|
|:dfe dBA|d2a fef|dfe dBd|cAA fec:|

